svg/smoke-detector.svg

<?xml version="1.0" encoding="UTF-8"?>
<!DOCTYPE svg PUBLIC "-//W3C//DTD SVG 1.1//EN" "http://www.w3.org/Graphics/SVG/1.1/DTD/svg11.dtd">
<svg xmlns="http://www.w3.org/2000/svg" xmlns:xlink="http://www.w3.org/1999/xlink" version="1.1"  width="24" height="24" viewBox="0 0 24 24">
    <path fill="#000000" d="M 2 2 L 2 7 L 3.8007812 7 L 6 12 L 18 12 L 20.199219 7 L 22 7 L 22 2 L 2 2 z M 6 7 L 7.3632812 7 L 8.1660156 10 L 7.4003906 10 L 6 7 z M 9.4335938 7 L 11 7 L 11 10 L 10.236328 10 L 9.4335938 7 z M 13 7 L 14.566406 7 L 13.763672 10 L 13 10 L 13 7 z M 16.636719 7 L 18 7 L 16.599609 10 L 15.833984 10 L 16.636719 7 z M 9.9121094 13.113281 L 8.4863281 14.515625 C 8.4863281 14.515625 8.7367896 14.774126 8.9589844 15.142578 C 9.1811792 15.51103 9.2732681 15.902246 9.2324219 16.054688 C 9.1584139 16.33089 8.9925215 16.473043 8.5761719 16.798828 C 8.1598223 17.124613 7.4798249 17.631364 7.2324219 18.554688 C 6.9623388 19.562649 7.3764611 20.403709 7.7265625 20.994141 C 8.0766639 21.584572 8.4707031 22 8.4707031 22 L 9.9257812 20.628906 C 9.9257812 20.628906 9.672235 20.354011 9.4472656 19.974609 C 9.2222963 19.595208 9.1338626 19.184973 9.1640625 19.072266 C 9.2259615 18.841255 9.3834476 18.705715 9.8085938 18.373047 C 10.23374 18.040379 10.913355 17.507919 11.164062 16.572266 C 11.435541 15.559092 11.027762 14.701473 10.671875 14.111328 C 10.315988 13.521183 9.9121094 13.113281 9.9121094 13.113281 z M 15.511719 13.113281 L 14.085938 14.515625 C 14.085938 14.515625 14.338352 14.774126 14.560547 15.142578 C 14.782742 15.51103 14.874831 15.902246 14.833984 16.054688 C 14.759974 16.33089 14.594084 16.473043 14.177734 16.798828 C 13.761385 17.124613 13.081387 17.631364 12.833984 18.554688 C 12.563901 19.562649 12.97607 20.403709 13.326172 20.994141 C 13.676273 21.584572 14.072266 22 14.072266 22 L 15.527344 20.628906 C 15.527344 20.628906 15.271844 20.354011 15.046875 19.974609 C 14.821906 19.595208 14.735425 19.184973 14.765625 19.072266 C 14.827525 18.841255 14.98501 18.705715 15.410156 18.373047 C 15.835302 18.040379 16.514917 17.507919 16.765625 16.572266 C 17.037104 15.559092 16.627371 14.701473 16.271484 14.111328 C 15.915598 13.521183 15.511719 13.113281 15.511719 13.113281 z " />
</svg>

<?xml version="1.0" encoding="UTF-8"?>
<!DOCTYPE svg PUBLIC "-//W3C//DTD SVG 1.1//EN" "http://www.w3.org/Graphics/SVG/1.1/DTD/svg11.dtd">
<svg xmlns="http://www.w3.org/2000/svg" xmlns:xlink="http://www.w3.org/1999/xlink" version="1.1"  width="24" height="24" viewBox="0 0 24 24">
<path d="m2 2v5h1.8008l2.1992 5h12l2.1992-5h1.8008v-5h-20zm4 5h1.3633l0.80273 3h-0.76562l-1.4004-3zm3.4336 0h1.5664v3h-0.76367l-0.80273-3zm3.5664 0h1.5664l-0.80273 3h-0.76367v-3zm3.6367 0h1.3633l-1.4004 3h-0.76562l0.80274-3zm-6.7246 6.1133l-1.4258 1.4023s0.25046 0.2585 0.47266 0.62695 0.31428 0.75967 0.27344 0.91211c-0.074008 0.2762-0.2399 0.41836-0.65625 0.74414s-1.0963 0.83254-1.3438 1.7559c-0.27008 1.008 0.14404 1.849 0.49414 2.4395 0.3501 0.59043 0.74414 1.0059 0.74414 1.0059l1.4551-1.3711s-0.25355-0.2749-0.47852-0.6543c-0.22497-0.3794-0.3134-0.78964-0.2832-0.90234 0.061899-0.23101 0.21939-0.36655 0.64453-0.69922s1.1048-0.86513 1.3555-1.8008c0.27148-1.0132-0.1363-1.8708-0.49219-2.4609s-0.75977-0.99805-0.75977-0.99805zm5.5996 0l-1.4258 1.4023s0.25241 0.2585 0.47461 0.62695 0.31428 0.75967 0.27344 0.91211c-0.07401 0.2762-0.2399 0.41836-0.65625 0.74414-0.41635 0.32578-1.0963 0.83254-1.3438 1.7559-0.27008 1.008 0.14209 1.849 0.49219 2.4395 0.3501 0.59043 0.74609 1.0059 0.74609 1.0059l1.4551-1.3711s-0.2555-0.2749-0.48047-0.6543c-0.22497-0.3794-0.31145-0.78964-0.28125-0.90234 0.0619-0.23101 0.21938-0.36655 0.64453-0.69922s1.1048-0.86513 1.3555-1.8008c0.27148-1.0132-0.13825-1.8708-0.49414-2.4609-0.35589-0.59014-0.75976-0.99805-0.75976-0.99805z"/>
</svg>
